X:66
T: KLAGET NICHT DASS ICH GEFALLEN
N: B0089
O: Europa, Mitteleuropa, Deutschland
R: Helden -, Ehren -, Gedaechtnis -, Kriegs - Lied
M: 4/4
L: 1/8
K: C
C,E, | G,3G,G,3G, | A,2G,2z2
G,G, | C2B,2A,2^G,2 | A,4z2
CA, | G,3G,G,2A,B, | D2C2z2
DC | B,3A,G,2D2 | CB,B,2z2
B,B, | C3C_E2DC | B,4z2
G,F, | E,3E,A,3G, | G,F,F,2z2
E,D, | E,2G,2A,2B,2 | C4z2

